svg/shopping_search_outline.svg

<svg xmlns="http://www.w3.org/2000/svg" viewBox="0 0 24 24"><path d="M19.31 18.9c1.33-2.1.69-4.9-1.4-6.21S13.03 12 11.7 14.1s-.7 4.9 1.4 6.2c1.46.92 3.32.93 4.78.02L21 23.39 22.39 22m-6.89-3a2.5 2.5 0 0 1 0-5 2.5 2.5 0 0 1 0 5m-5.47 1H5V8h14v3.03c.81.52 1.5 1.21 2 2.02V8c0-1.1-.9-2-2-2h-2c0-2.8-2.2-5-5-5S7 3.2 7 6H5c-1.1 0-2 .9-2 2v12c0 1.1.9 2 2 2h7.05c-.81-.5-1.5-1.19-2.02-2M12 3c1.7 0 3 1.3 3 3H9c0-1.7 1.3-3 3-3m3 6h2c0 .4-.05.78-.14 1.15-.44-.1-.89-.15-1.36-.15-.23 0-.46 0-.68.04.11-.33.18-.67.18-1.04m-5.24 4.46A4.92 4.92 0 0 1 7 9h2c0 1.34.82 2.42 2 2.82-.5.48-.92 1.03-1.24 1.64"/></svg>

<svg xmlns="http://www.w3.org/2000/svg" id="mdi-shopping-search-outline" viewBox="0 0 24 24"><path d="M19.31 18.9C20.64 16.8 20 14 17.91 12.69S13.03 12 11.7 14.1 11 19 13.1 20.3C14.56 21.22 16.42 21.23 17.88 20.32L21 23.39L22.39 22M15.5 19C14.12 19 13 17.88 13 16.5S14.12 14 15.5 14 18 15.12 18 16.5 16.88 19 15.5 19M10.03 20H5V8H19V11.03C19.81 11.55 20.5 12.24 21 13.05V8C21 6.9 20.1 6 19 6H17C17 3.2 14.8 1 12 1S7 3.2 7 6H5C3.9 6 3 6.9 3 8V20C3 21.1 3.9 22 5 22H12.05C11.24 21.5 10.55 20.81 10.03 20M12 3C13.7 3 15 4.3 15 6H9C9 4.3 10.3 3 12 3M15 9H17C17 9.4 16.95 9.78 16.86 10.15C16.42 10.05 15.97 10 15.5 10C15.27 10 15.04 10 14.82 10.04C14.93 9.71 15 9.37 15 9M9.76 13.46C8.12 12.65 7 11 7 9H9C9 10.34 9.82 11.42 11 11.82C10.5 12.3 10.08 12.85 9.76 13.46Z" /></svg>
